**kern	**silbe	**harmony	**phrase	**leadinstrument	**rhyme	**timestamp	**harte
*ICvox	*	*M4/4	*	*	*	*	*M4/4
*VRlead	*	*	*	*	*	*	*
*Hstimme	*	*	*	*	*	*	*
*d:	*	*d:	*d:	*d:	*	*d:	*d:
*M4/4	*	*	*	*	*	*	*
*clefC3	*	*	*	*	*	*	*
r;	.	1r;	.	r	.	0	N.C.
=1	=1	=1	=1	=1	=1	=1	=1
*>Letter>A	*>Letter>A	*>Letter>A	*>Letter>A	*>Letter>A	*>Letter>A	*>Letter>A	*>Letter>A
*>Label>Intro	*>Label>Intro	*>Label>Intro	*>Label>Intro	*>Label>Intro	*>Label>Intro	*>Label>Intro	*>Label>Intro
1r	.	1Dmm	newline	r	.	0.232	D:min7
=2	=2	=2	=2	=2	=2	=2	=2
2r	.	1Dmm	.	r	.	2.413	D:min7
8r	.	.	.	.	.	.	.
8f	Hah!	.	.	.	.	.	.
4r	.	.	.	.	.	.	.
=3	=3	=3	=3	=3	=3	=3	=3
1r	.	1Dmm	.	r	.	4.594	D:min7
=4	=4	=4	=4	=4	=4	=4	=4
2r	.	1Dmm	.	r	.	6.776	D:min7
4r	.	.	.	.	.	.	.
8cc	I	.	.	.	.	.	.
8cc	don't	.	.	.	.	.	.
=5	=5	=5	=5	=5	=5	=5	=5
*>Letter>B	*>Letter>B	*>Letter>B	*>Letter>B	*>Letter>B	*>Letter>B	*>Letter>B	*>Letter>B
*>Label>Verse	*>Label>Verse	*>Label>Verse	*>Label>Verse	*>Label>Verse	*>Label>Verse	*>Label>Verse	*>Label>Verse
8a-	care	1Dmm	newline	voice	.	8.957	D:min7
16g	_	.	.	.	.	.	.
16f	_	.	.	.	.	.	.
4r	.	.	.	.	.	.	.
4r	.	.	.	.	.	.	.
8r	.	.	.	.	.	.	.
8g	hah	.	.	.	.	.	.
=6	=6	=6	=6	=6	=6	=6	=6
8r	.	1Dmm	.	voice	.	11.113	D:min7
8c	Uh	.	.	.	.	.	.
4r	.	.	.	.	.	.	.
8r	.	.	.	.	.	.	.
8c	A-	.	.	.	.	.	.
8d	-bout	.	.	.	.	.	.
8c	your	.	.	.	.	.	.
=7	=7	=7	=7	=7	=7	=7	=7
16f	past	1Dmm	.	voice	A	13.269	D:min7
[8.c	_	.	.	.	.	.	.
8.c]	_	.	.	.	.	.	.
16r	.	.	.	.	.	.	.
2r	.	.	.	.	.	.	.
=8	=8	=8	=8	=8	=8	=8	=8
2r	.	1Dmm	.	voice	.	15.426	D:min7
4r	.	.	.	.	.	.	.
8cc	I	.	.	.	.	.	.
[8cc	just	.	.	.	.	.	.
=9	=9	=9	=9	=9	=9	=9	=9
8cc]	want	1Dmm	newline	voice	.	17.582	D:min7
8gq	_	.	.	.	.	.	.
8a-	_	.	.	.	.	.	.
16g	_	.	.	.	.	.	.
[8.f	_	.	.	.	.	.	.
8f]	_	.	.	.	.	.	.
16g	_	.	.	.	.	.	.
16a	_	.	.	.	.	.	.
4r	.	.	.	.	.	.	.
=10	=10	=10	=10	=10	=10	=10	=10
8r	.	1Dmm	.	voice	.	19.728	D:min7
16a	Heaugh	.	.	.	.	.	.
16f	_	.	.	.	.	.	.
4r	.	.	.	.	.	.	.
8r	.	.	.	.	.	.	.
8d	Our	.	.	.	.	.	.
8~e	love	.	.	.	.	.	.
8c	to	.	.	.	.	.	.
=11	=11	=11	=11	=11	=11	=11	=11
8B	last	1Dmm	.	voice	A	21.875	D:min7
4A	_	.	.	.	.	.	.
8r	.	.	.	.	.	.	.
8r	.	.	.	.	.	.	.
8a-	Uh	.	.	.	.	.	.
4r	.	.	.	.	.	.	.
=12	=12	=12	=12	=12	=12	=12	=12
2r	.	1Dmm	.	voice	.	24.022	D:min7
4r	.	.	.	.	.	.	.
8cc	I	.	.	.	.	.	.
8cc	don't	.	.	.	.	.	.
=13	=13	=13	=13	=13	=13	=13	=13
8gq	_	.	.	.	.	.	.
4a-	care	1Dmm	newline	voice	.	26.168	D:min7
16g	_	.	.	.	.	.	.
16f	_	.	.	.	.	.	.
8r	.	.	.	.	.	.	.
8r	.	.	.	.	.	.	.
8fq	_	.	.	.	.	.	.
[8g	dar	.	.	.	.	.	.
16g]	_	.	.	.	.	.	.
16a	ling	.	.	.	.	.	.
8r	.	.	.	.	.	.	.
=14	=14	=14	=14	=14	=14	=14	=14
2r	.	1Dmm	.	voice	.	28.313	D:min7
8r	.	.	.	.	.	.	.
8c	a-	.	.	.	.	.	.
8d	-bout	.	.	.	.	.	.
8c	your	.	.	.	.	.	.
=15	=15	=15	=15	=15	=15	=15	=15
8r	.	1Dmm	.	voice	.	30.459	D:min7
4f	faults	.	.	.	B	.	.
8r	.	.	.	.	.	.	.
8r	.	.	.	.	.	.	.
8ff	Hah	.	.	.	.	.	.
8r	.	.	.	.	.	.	.
8d	Uh	.	.	.	.	.	.
=16	=16	=16	=16	=16	=16	=16	=16
2r	.	1Dmm	.	voice	.	32.604	D:min7
4r	.	.	.	.	.	.	.
8cc	I	.	.	.	.	.	.
[8cc	just	.	.	.	.	.	.
=17	=17	=17	=17	=17	=17	=17	=17
8cc]	_	1Dmm	newline	voice	.	34.749	D:min7
8gq	_	.	.	.	.	.	.
8a-	want	.	.	.	.	.	.
12g	_	.	.	.	.	.	.
12f	_	.	.	.	.	.	.
12g	_	.	.	.	.	.	.
8a	_	.	.	.	.	.	.
8r	.	.	.	.	.	.	.
4r	.	.	.	.	.	.	.
=18	=18	=18	=18	=18	=18	=18	=18
2r	.	1Dmm	.	voice	.	36.886	D:min7
8r	.	.	.	.	.	.	.
8c	to	.	.	.	.	.	.
8c	sa-	.	.	.	.	.	.
8c	-tis-	.	.	.	.	.	.
=19	=19	=19	=19	=19	=19	=19	=19
8d	-fy	1Dmm	.	voice	.	39.023	D:min7
8d	your	.	.	.	.	.	.
4~e	pulse	.	.	.	B	.	.
2r	.	.	.	.	.	.	.
=20	=20	=20	=20	=20	=20	=20	=20
8r	.	1Dmm	.	voice	.	41.16	D:min7
4.cc	Oh	.	.	.	.	.	.
4.dd	_	.	.	.	.	.	.
8r	.	.	.	.	.	.	.
=21	=21	=21	=21	=21	=21	=21	=21
*>Letter>C	*>Letter>C	*>Letter>C	*>Letter>C	*>Letter>C	*>Letter>C	*>Letter>C	*>Letter>C
*>Label>Chorus	*>Label>Chorus	*>Label>Chorus	*>Label>Chorus	*>Label>Chorus	*>Label>Chorus	*>Label>Chorus	*>Label>Chorus
1r	.	1CMm	newline	voice	.	43.297	C:7
=22	=22	=22	=22	=22	=22	=22	=22
4r	.	1FMm	.	voice	.	45.45	F:7
8r	.	.	.	.	.	.	.
8cc	When	.	.	.	.	.	.
8b-	you	.	.	.	.	.	.
8cc	kiss	.	.	.	C	.	.
8r	.	.	.	.	.	.	.
8b-q	_	.	.	.	.	.	.
[8cc	me	.	.	.	.	.	.
=23	=23	=23	=23	=23	=23	=23	=23
8cc]	_	1CMm	.	voice	.	47.603	C:7
16b-	_	.	.	.	.	.	.
16g	_	.	.	.	.	.	.
16f	_	.	.	.	.	.	.
16e-	_	.	.	.	.	.	.
8r	.	.	.	.	.	.	.
2r	.	.	.	.	.	.	.
=24	=24	=24	=24	=24	=24	=24	=24
2r	.	1FMm	.	voice	.	49.756	F:7
8.r	.	.	.	.	.	.	.
[16cc	When	.	.	.	.	.	.
16cc]	_	.	.	.	.	.	.
8b-	you	.	.	.	.	.	.
[16cc	miss	.	.	.	C	.	.
=25	=25	=25	=25	=25	=25	=25	=25
8cc]	_	1CMm	newline	voice	.	51.91	C:7
16cc	me	.	.	.	.	.	.
16dd	_	.	.	.	.	.	.
4r	.	.	.	.	.	.	.
2r	.	.	.	.	.	.	.
=26	=26	=26	=26	=26	=26	=26	=26
2r	.	1FMm	.	voice	.	54.049	F:7
4r	.	.	.	.	.	.	.
8r	.	.	.	.	.	.	.
8b-q	_	.	.	.	.	.	.
[8cc	Hold	.	.	.	.	.	.
=27	=27	=27	=27	=27	=27	=27	=27
8cc]	_	1CMm	.	voice	.	56.189	C:7
8b-	my	.	.	.	.	.	.
8g	hand	.	.	.	D	.	.
16f	_	.	.	.	.	.	.
[16e-	_	.	.	.	.	.	.
16e-]	_	.	.	.	.	.	.
16f	_	.	.	.	.	.	.
8g	_	.	.	.	.	.	.
4r	.	.	.	.	.	.	.
=28	=28	=28	=28	=28	=28	=28	=28
2r	.	1FMm	.	voice	.	58.328	F:7
8r	.	.	.	.	.	.	.
8cc	Make	.	.	.	.	.	.
16b-	me	.	.	.	.	.	.
8.cc	un-	.	.	.	.	.	.
=29	=29	=29	=29	=29	=29	=29	=29
8b-q	_	.	.	.	.	.	.
2cc	-der-	1CMm	newline	voice	.	60.468	C:7
8b-	-stand	.	.	.	D	.	.
8b-q	_	.	.	.	.	.	.
[8f	_	.	.	.	.	.	.
8f]	_	.	.	.	.	.	.
16f	_	.	.	.	.	.	.
16e-	_	.	.	.	.	.	.
=30	=30	=30	=30	=30	=30	=30	=30
8c	_	1FMm	.	voice	.	62.629	F:7
8r	.	.	.	.	.	.	.
4r	.	.	.	.	.	.	.
2r	.	.	.	.	.	.	.
=31	=31	=31	=31	=31	=31	=31	=31
2r	.	1N	newline	voice	.	64.789	N.C.
8r	.	.	.	.	.	.	.
8b-	I	.	.	.	.	.	.
8cc	break	.	.	.	.	.	.
8cc	out!	.	.	.	.	.	.
=32	=32	=32	=32	=32	=32	=32	=32
1r	.	1GMm	.	voice	.	66.834	G:7
=33	=33	=33	=33	=33	=33	=33	=33
4r	.	1N	.	voice	.	68.878	N.C.
8r	.	.	.	.	.	.	.
16cc	In	.	.	.	.	.	.
16b-	a	.	.	.	.	.	.
8r	.	.	.	.	.	.	.
4.cc	cold	.	.	.	.	.	.
=34	=34	=34	=34	=34	=34	=34	=34
8cc	sweat	1GMm	.	voice	.	70.923	G:9
8r	.	.	.	.	.	.	.
4r	.	.	.	.	.	.	.
2r	.	.	.	.	.	.	.
=35	=35	=35	=35	=35	=35	=35	=35
*>Letter>A	*>Letter>A	*>Letter>A	*>Letter>A	*>Letter>A	*>Letter>A	*>Letter>A	*>Letter>A
*>Label>Trans	*>Label>Trans	*>Label>Trans	*>Label>Trans	*>Label>Trans	*>Label>Trans	*>Label>Trans	*>Label>Trans
2r	.	1DMm	newline	voice	.	72.967	D:maj6(b7,11)
8r	.	.	.	.	.	.	.
8cc	Ho	.	.	.	.	.	.
8f	_	.	.	.	.	.	.
8r	.	.	.	.	.	.	.
=36	=36	=36	=36	=36	=36	=36	=36
2r	.	1DMm	.	voice	.	75.126	D:maj6(b7,11)
8r	.	.	.	.	.	.	.
8cc	Uh!	.	.	.	.	.	.
4r	.	.	.	.	.	.	.
=37	=37	=37	=37	=37	=37	=37	=37
1r	.	1DMm	.	voice	.	77.285	D:maj6(b7,11)
=38	=38	=38	=38	=38	=38	=38	=38
2r	.	1DMm	.	voice	.	79.444	D:maj6(b7,11)
8r	.	.	.	.	.	.	.
8dd	Oh	.	.	.	.	.	.
4r	.	.	.	.	.	.	.
=39	=39	=39	=39	=39	=39	=39	=39
*>Letter>B	*>Letter>B	*>Letter>B	*>Letter>B	*>Letter>B	*>Letter>B	*>Letter>B	*>Letter>B
*>Label>Verse	*>Label>Verse	*>Label>Verse	*>Label>Verse	*>Label>Verse	*>Label>Verse	*>Label>Verse	*>Label>Verse
2r	.	1Dmm	newline	voice	.	81.603	D:min7
4r	.	.	.	.	.	.	.
8cc	I	.	.	.	.	.	.
8cc	don't	.	.	.	.	.	.
=40	=40	=40	=40	=40	=40	=40	=40
8gq	_	.	.	.	.	.	.
8a-	care	1Dmm	.	voice	.	83.769	D:min7
16g	_	.	.	.	.	.	.
16f	_	.	.	.	.	.	.
4r	.	.	.	.	.	.	.
2r	.	.	.	.	.	.	.
=41	=41	=41	=41	=41	=41	=41	=41
2r	.	1Dmm	.	voice	.	85.934	D:min7
8r	.	.	.	.	.	.	.
8c	a-	.	.	.	.	.	.
8d	-bout	.	.	.	.	.	.
[8d	your	.	.	.	.	.	.
=42	=42	=42	=42	=42	=42	=42	=42
8d]	_	1Dmm	.	voice	.	88.1	D:min7
4f	wants	.	.	.	E	.	.
8r	.	.	.	.	.	.	.
2r	.	.	.	.	.	.	.
=43	=43	=43	=43	=43	=43	=43	=43
2r	.	1Dmm	newline	voice	.	90.266	D:min7
4r	.	.	.	.	.	.	.
8cc	I	.	.	.	.	.	.
8cc	just	.	.	.	.	.	.
=44	=44	=44	=44	=44	=44	=44	=44
4a	w-	1Dmm	.	voice	.	92.403	D:min7
16cc	-wan-	.	.	.	.	.	.
16dd	-na	.	.	.	.	.	.
8r	.	.	.	.	.	.	.
8r	.	.	.	.	.	.	.
8e	hah!	.	.	.	.	.	.
4r	.	.	.	.	.	.	.
=45	=45	=45	=45	=45	=45	=45	=45
2r	.	1Dmm	.	voice	.	94.54	D:min7
8r	.	.	.	.	.	.	.
8d	Tell	.	.	.	.	.	.
8B	you	.	.	.	.	.	.
8d	'bout	.	.	.	.	.	.
=46	=46	=46	=46	=46	=46	=46	=46
8B	the	1Dmm	.	voice	.	96.678	D:min7
4f	do's	.	.	.	.	.	.
8B	and	.	.	.	.	.	.
8B	don'ts	.	.	.	E	.	.
8r	.	.	.	.	.	.	.
4r	.	.	.	.	.	.	.
=47	=47	=47	=47	=47	=47	=47	=47
2r	.	1Dmm	newline	voice	.	98.815	D:min7
4r	.	.	.	.	.	.	.
16cc	I	.	.	.	.	.	.
8.cc	don't	.	.	.	.	.	.
=48	=48	=48	=48	=48	=48	=48	=48
8gq	_	.	.	.	.	.	.
16a-	care	1Dmm	.	voice	.	100.964	D:min7
16g	_	.	.	.	.	.	.
8r	.	.	.	.	.	.	.
4r	.	.	.	.	.	.	.
2r	.	.	.	.	.	.	.
=49	=49	=49	=49	=49	=49	=49	=49
2r	.	1Dmm	.	voice	.	103.114	D:min7
8r	.	.	.	.	.	.	.
8c	a-	.	.	.	.	.	.
8d	-bout	.	.	.	.	.	.
8c	the	.	.	.	.	.	.
=50	=50	=50	=50	=50	=50	=50	=50
8f	way	1Dmm	.	voice	.	105.263	D:min7
8g	you	.	.	.	.	.	.
8a	treat	.	.	.	.	.	.
16a	me	.	.	.	.	.	.
16g	_	.	.	.	.	.	.
8f	_	.	.	.	.	.	.
8fq	_	.	.	.	.	.	.
[8g	dar	.	.	.	.	.	.
16g]	_	.	.	.	.	.	.
8a	ling	.	.	.	f	.	.
16r	.	.	.	.	.	.	.
=51	=51	=51	=51	=51	=51	=51	=51
2r	.	1Dmm	newline	voice	.	107.412	D:min7
4r	.	.	.	.	.	.	.
8cc	I	.	.	.	.	.	.
8cc	just	.	.	.	.	.	.
=52	=52	=52	=52	=52	=52	=52	=52
8gq	_	.	.	.	.	.	.
8a-	want	1Dmm	.	voice	.	109.546	D:min7
16g	_	.	.	.	.	.	.
16f	_	.	.	.	.	.	.
4r	.	.	.	.	.	.	.
8r	.	.	.	.	.	.	.
8c	hah!	.	.	.	.	.	.
4r	.	.	.	.	.	.	.
=53	=53	=53	=53	=53	=53	=53	=53
2r	.	1Dmm	.	voice	.	111.68	D:min7
4r	.	.	.	.	.	.	.
8B	To	.	.	.	.	.	.
8d	un-	.	.	.	.	.	.
=54	=54	=54	=54	=54	=54	=54	=54
8e	-der-	1Dmm	.	voice	.	113.814	D:min7
8f	-stand	.	.	.	.	.	.
8d	_	.	.	.	.	.	.
[8d	me,	.	.	.	.	.	.
8d]	_	.	.	.	.	.	.
[8~e	ho	.	.	.	.	.	.
16e]	_	.	.	.	.	.	.
8.B	ney	.	.	.	f	.	.
=55	=55	=55	=55	=55	=55	=55	=55
*>Letter>C	*>Letter>C	*>Letter>C	*>Letter>C	*>Letter>C	*>Letter>C	*>Letter>C	*>Letter>C
*>Label>Chorus	*>Label>Chorus	*>Label>Chorus	*>Label>Chorus	*>Label>Chorus	*>Label>Chorus	*>Label>Chorus	*>Label>Chorus
4r	.	1CMm	newline	voice	.	115.947	C:7
8r	.	.	.	.	.	.	.
8cc	Oh	.	.	.	.	.	.
4.dd	_	.	.	.	.	.	.
8r	.	.	.	.	.	.	.
=56	=56	=56	=56	=56	=56	=56	=56
1r	.	1FMm	.	voice	.	118.083	F:7
=57	=57	=57	=57	=57	=57	=57	=57
4r	.	1CMm	.	voice	.	120.218	C:7
8r	.	.	.	.	.	.	.
8cc	When	.	.	.	.	.	.
8b-	you	.	.	.	.	.	.
8cc	kiss	.	.	.	.	.	.
8r	.	.	.	.	.	.	.
8b-q	_	.	.	.	.	.	.
[8cc	me	.	.	.	.	.	.
=58	=58	=58	=58	=58	=58	=58	=58
2cc_	_	1FMm	.	voice	.	122.354	F:7
8cc]	_	.	.	.	.	.	.
16g-	_	.	.	.	.	.	.
16f	_	.	.	.	.	.	.
8f	_	.	.	.	.	.	.
8r	.	.	.	.	.	.	.
=59	=59	=59	=59	=59	=59	=59	=59
2r	.	1CMm	newline	voice	.	124.49	C:7
8r	.	.	.	.	.	.	.
8b-	When	.	.	.	.	.	.
8cc	you	.	.	.	.	.	.
[8ee-	miss	.	.	.	.	.	.
=60	=60	=60	=60	=60	=60	=60	=60
8ee-]	_	1FMm	.	voice	.	126.622	F:7
8b-	me	.	.	.	.	.	.
4r	.	.	.	.	.	.	.
2r	.	.	.	.	.	.	.
=61	=61	=61	=61	=61	=61	=61	=61
2r	.	1CMm	.	voice	.	128.754	C:7
16r	.	.	.	.	.	.	.
16~f	You	.	.	.	.	.	.
[8~dd	hold	.	.	.	.	.	.
16dd]	_	.	.	.	.	.	.
[8.cc	me	.	.	.	.	.	.
=62	=62	=62	=62	=62	=62	=62	=62
8cc]	_	1FMm	.	voice	.	130.886	F:7
16b-	tight	.	.	.	.	.	.
16g	_	.	.	.	.	.	.
16f	_	.	.	.	.	.	.
8e-	_	.	.	.	.	.	.
[16f	_	.	.	.	.	.	.
16f]	_	.	.	.	.	.	.
16e-	_	.	.	.	.	.	.
16g	_	.	.	.	.	.	.
[16g	_	.	.	.	.	.	.
16g]	_	.	.	.	.	.	.
8.r	.	.	.	.	.	.	.
=63	=63	=63	=63	=63	=63	=63	=63
2r	.	1CMm	newline	voice	.	133.018	C:7
8r	.	.	.	.	.	.	.
8cc	Make	.	.	.	.	.	.
16b-	ev	.	.	.	.	.	.
[8.cc	_	.	.	.	.	.	.
=64	=64	=64	=64	=64	=64	=64	=64
2cc]	_	1FMm	.	voice	.	135.146	F:7
8~gg	'ry-	.	.	.	.	.	.
8f	-thing	.	.	.	.	.	.
16g	_	.	.	.	.	.	.
16f	_	.	.	.	.	.	.
16e-	al	.	.	.	.	.	.
[16f	_	.	.	.	.	.	.
=65	=65	=65	=65	=65	=65	=65	=65
8f]	_	1N	newline	voice	.	137.274	N.C.
16e-	right	.	.	.	.	.	.
16c	_	.	.	.	.	.	.
4r	.	.	.	.	.	.	.
8r	.	.	.	.	.	.	.
8~a	I	.	.	.	.	.	.
8~b-	break	.	.	.	.	.	.
8~b-	out!	.	.	.	.	.	.
=66	=66	=66	=66	=66	=66	=66	=66
1r	.	1GMm	.	voice	.	139.355	G:7
=67	=67	=67	=67	=67	=67	=67	=67
4r	.	1N	.	voice	.	141.435	N.C.
8r	.	.	.	.	.	.	.
16cc	In	.	.	.	.	.	.
16b-	a	.	.	.	.	.	.
8r	.	.	.	.	.	.	.
4.cc	cold	.	.	.	.	.	.
=68	=68	=68	=68	=68	=68	=68	=68
8cc	sweat	1GMm	.	voice	.	143.516	G:9
8r	.	.	.	.	.	.	.
4r	.	.	.	.	.	.	.
4r	.	.	.	.	.	.	.
8r	.	.	.	.	.	.	.
8a	Hah!	.	.	.	.	.	.
=69	=69	=69	=69	=69	=69	=69	=69
*>Letter>A	*>Letter>A	*>Letter>A	*>Letter>A	*>Letter>A	*>Letter>A	*>Letter>A	*>Letter>A
*>Label>Outro	*>Label>Outro	*>Label>Outro	*>Label>Outro	*>Label>Outro	*>Label>Outro	*>Label>Outro	*>Label>Outro
1r	.	1Dmm	newline	voice	.	145.597	D:min7
=70	=70	=70	=70	=70	=70	=70	=70
1r	.	1Dmm	.	voice	.	147.767	D:min7
=71	=71	=71	=71	=71	=71	=71	=71
1r	.	1Dmm	.	voice	.	149.937	D:min7
=72	=72	=72	=72	=72	=72	=72	=72
1r	.	1Dmm	.	voice	.	152.107	D:min7
=73	=73	=73	=73	=73	=73	=73	=73
1r	.	1Dmm	newline	saxophone	.	154.277	D:min7
=74	=74	=74	=74	=74	=74	=74	=74
1r	.	1Dmm	.	saxophone	.	156.421	D:min7
=75	=75	=75	=75	=75	=75	=75	=75
1r	.	1Dmm	.	saxophone	.	158.564	D:min7
=76	=76	=76	=76	=76	=76	=76	=76
1r	.	1Dmm	.	saxophone	.	160.707	D:min7
=77	=77	=77	=77	=77	=77	=77	=77
*>Label>>Fadeout	*>Label>>Fadeout	*>Label>>Fadeout	*>Label>>Fadeout	*>Label>>Fadeout	*>Label>>Fadeout	*>Label>>Fadeout	*>Label>>Fadeout
1r	.	1Dmm	newline	saxophone	.	162.85	D:min7
=78	=78	=78	=78	=78	=78	=78	=78
1r	.	1Dmm	.	saxophone	.	164.717	D:min7
=79	=79	=79	=79	=79	=79	=79	=79
1r	.	1Dmm	.	saxophone	.	166.584	D:min7
=80	=80	=80	=80	=80	=80	=80	=80
1r	.	1Dmm	.	saxophone	.	168.451	D:min7
r;	.	1r;	.	r	.	170.318	N.C.
r;	.	1r;	.	r	.	171.938	N.C.
*-	*-	*-	*-	*-	*-	*-	*-
!!!BillboardChartDate: 1967/07/29
!!!BillboardPeak: 7
!!!BillboardWeeksOnChart: 12
!!!COC: James Brown
!!!ENC: Nathaniel Condit-Schultz
!!!EST: Awating manual error checking and editing.
!!!OTL: Cold Sweat - Part 1
!!!RDF**chordsym: original McGill chord annotation + (implied pitch class set, with bass pitch in first position)
!!!RDF**harmony: **recip + pitch class of root + harmonic quality
!!!RDF**leadinstrument: original McGill primary instrumentation annotation
!!!RDF**phrase: newline = linebreak in original McGill transcription
!!!RDF**timestamp: McGill audio timestamp in seconds
!!!RDT: 2017/01/12/
!!!SampleActualRank: 58
!!!SampleID#: 0079
!!!SampleTargetRank: 56
